src/icons/i18n.svg

<svg viewBox="0 0 24 24" xmlns="http://www.w3.org/2000/svg">
  <path
    d="M12.839 14.958L10.392 12.54L10.421 12.51C12.0529 10.6963 13.2723 8.55033 13.995 6.22H16.818V4.291H10.074V2.365H8.14701V4.292H1.40201V6.22H12.164C11.4983 8.12402 10.4601 9.87643 9.11001 11.375C8.23065 10.4005 7.48232 9.31531 6.88401 8.147H4.95801C5.68045 9.75165 6.64875 11.2338 7.82801 12.54L2.92501 17.377L4.29301 18.745L9.11001 13.928L12.107 16.924L12.839 14.958ZM18.263 10.074H16.336L12.001 21.636H13.928L15.007 18.746H19.583L20.672 21.636H22.599L18.263 10.074ZM15.739 16.818L17.299 12.646L18.86 16.818H15.739Z"
    fill="#7986CB"
  />
</svg>

<svg
  clip-rule="evenodd"
  fill-rule="evenodd"
  stroke-linejoin="round"
  stroke-miterlimit="1.414"
  viewBox="0 0 24 24"
  xml:space="preserve"
  xmlns="http://www.w3.org/2000/svg"
>
  <path
    d="m12.839 14.958-2.447-2.418.029-.03a16.879 16.879 0 0 0 3.574-6.29h2.823V4.291h-6.744V2.365H8.147v1.927H1.402V6.22h10.762a15.193 15.193 0 0 1-3.054 5.155 15.076 15.076 0 0 1-2.226-3.228H4.958a16.923 16.923 0 0 0 2.87 4.393l-4.903 4.837 1.368 1.368 4.817-4.817 2.997 2.996.732-1.965m5.424-4.885h-1.927l-4.335 11.562h1.927l1.079-2.89h4.576l1.089 2.89h1.927l-4.336-11.562m-2.524 6.744 1.56-4.172 1.561 4.172z"
    style="fill: #7986cb; stroke-width: 0.96349"
  />
</svg>
